X:11
T:Eus an Arvor, ar menez
T:Patronez dous ar Folgoet
M:6/8
K:D
F|F2G A2B|A2G F2F|FED E2F|F3- Fz F|F2G A2B|A2G F2F|FED E2F|F3- Fz F|
F2F FEF|G2F E2D|F2A AGF|E3- Ez D|F2G A2B|A3 D2G|F2F EFE|D3- D2||
